src/assets/filled/VolumeUp.svg

<svg width="24" height="24" viewBox="0 0 24 24"  xmlns="http://www.w3.org/2000/svg">
<path d="M22 11.25H20.75V10C20.75 9.59 20.41 9.25 20 9.25C19.59 9.25 19.25 9.59 19.25 10V11.25H18C17.59 11.25 17.25 11.59 17.25 12C17.25 12.41 17.59 12.75 18 12.75H19.25V14C19.25 14.41 19.59 14.75 20 14.75C20.41 14.75 20.75 14.41 20.75 14V12.75H22C22.41 12.75 22.75 12.41 22.75 12C22.75 11.59 22.41 11.25 22 11.25Z" />
<path d="M14.02 3.77997C12.9 3.15997 11.47 3.31997 10.01 4.22997L7.09 6.05997C6.89 6.17997 6.66 6.24997 6.43 6.24997H5.5H5C2.58 6.24997 1.25 7.57997 1.25 9.99997V14C1.25 16.42 2.58 17.75 5 17.75H5.5H6.43C6.66 17.75 6.89 17.82 7.09 17.94L10.01 19.77C10.89 20.32 11.75 20.59 12.55 20.59C13.07 20.59 13.57 20.47 14.02 20.22C15.13 19.6 15.75 18.31 15.75 16.59V7.40997C15.75 5.68997 15.13 4.39997 14.02 3.77997Z" />
</svg>

<?xml version="1.0" encoding="UTF-8"?>
<svg width="24" height="24" viewBox="0 0 24 24" xmlns="http://www.w3.org/2000/svg">
 <path d="m22 11.25h-1.25v-1.25c0-0.41-0.34-0.75-0.75-0.75s-0.75 0.34-0.75 0.75v1.25h-1.25c-0.41 0-0.75 0.34-0.75 0.75s0.34 0.75 0.75 0.75h1.25v1.25c0 0.41 0.34 0.75 0.75 0.75s0.75-0.34 0.75-0.75v-1.25h1.25c0.41 0 0.75-0.34 0.75-0.75s-0.34-0.75-0.75-0.75z"/>
 <path d="m14.02 3.78c-1.12-0.62-2.55-0.46-4.01 0.45l-2.92 1.83c-0.2 0.12-0.43 0.19-0.66 0.19h-1.43c-2.42 0-3.75 1.33-3.75 3.75v4c0 2.42 1.33 3.75 3.75 3.75h1.43c0.23 0 0.46 0.07 0.66 0.19l2.92 1.83c0.88 0.55 1.74 0.82 2.54 0.82 0.52 0 1.02-0.12 1.47-0.37 1.11-0.62 1.73-1.91 1.73-3.63v-9.18c0-1.72-0.62-3.01-1.73-3.63z"/>
</svg>
